templates/main/source/images/benefits-icons/PcardDeskcatalog.svg

<?xml version="1.0" encoding="utf-8"?>
<svg width="34px" height="34px" viewBox="0 0 34 34" version="1.1" xmlns:xlink="http://www.w3.org/1999/xlink" xmlns="http://www.w3.org/2000/svg">
  <desc>Created with Lunacy</desc>
  <defs>
    <linearGradient x1="-0.21279062" y1="0.4996875" x2="0.78793436" y2="0.4996875" id="gradient_1">
      <stop offset="0" stop-color="#FFFFFF" />
      <stop offset="0.4" stop-color="#FFFFFF" />
      <stop offset="0.53" stop-color="#E2F2FA" />
      <stop offset="0.82" stop-color="#98D0ED" />
      <stop offset="1" stop-color="#65B8E4" />
    </linearGradient>
    <linearGradient x1="-0.0338696" y1="0.6226708" x2="1.0211685" y2="0.29503107" id="gradient_2">
      <stop offset="0" stop-color="#FFFFFF" />
      <stop offset="0.09" stop-color="#F2F9FC" />
      <stop offset="0.25" stop-color="#D1E9F5" />
      <stop offset="0.47" stop-color="#9BD0EA" />
      <stop offset="0.73" stop-color="#51ADDB" />
      <stop offset="1" stop-color="#0086CA" />
    </linearGradient>
    <linearGradient x1="0.633934" y1="1.0289474" x2="0.25269428" y2="-0.009649123" id="gradient_3">
      <stop offset="0" stop-color="#FFFFFF" />
      <stop offset="0.36" stop-color="#D8EAF7" />
      <stop offset="1" stop-color="#8AC1E8" />
    </linearGradient>
    <linearGradient x1="1.0283333" y1="-66.873146" x2="-0.0125" y2="-67.22076" id="gradient_4">
      <stop offset="0" stop-color="#FFFFFF" />
      <stop offset="0.36" stop-color="#D8EAF7" />
      <stop offset="1" stop-color="#8AC1E8" />
    </linearGradient>
    <linearGradient x1="0.37541437" y1="-30.066135" x2="0.72559077" y2="-31.11235" id="gradient_5">
      <stop offset="0" stop-color="#FFFFFF" />
      <stop offset="0.36" stop-color="#D8EAF7" />
      <stop offset="1" stop-color="#8AC1E8" />
    </linearGradient>
  </defs>
  <g id="icons/example1">
    <g id="Быстрая-программа-QuickPowerWash+">
      <path d="M26.35 0L7.65 0C3.42502 0 0 3.42502 0 7.65L0 26.35C0 30.575 3.42502 34 7.65 34L26.35 34C28.3789 34 30.3247 33.194 31.7594 31.7594C33.194 30.3247 34 28.3789 34 26.35L34 7.65C34 5.62109 33.194 3.67529 31.7594 2.24063C30.3247 0.80598 28.3789 0 26.35 0ZM26.35 1.275C29.8708 1.275 32.725 4.12919 32.725 7.65L32.725 26.35C32.725 29.8708 29.8708 32.725 26.35 32.725L7.65 32.725C4.12919 32.725 1.275 29.8708 1.275 26.35L1.275 7.65C1.275 4.12919 4.12919 1.275 7.65 1.275L26.35 1.275ZM5.80125 22.525C5.80125 21.5432 5.678 20.825 4.7005 20.825C3.723 20.825 3.59975 21.522 3.59975 22.525C3.59975 23.528 3.723 24.225 4.7005 24.225L4.93 24.225L5.12975 24.174L5.5165 24.5735L5.90325 24.225L5.55475 23.8722C5.76232 23.4675 5.84935 23.0117 5.8055 22.559L5.80125 22.525ZM18.9805 22.525C18.9805 21.522 19.1038 20.825 20.0812 20.825C21.0588 20.825 21.182 21.522 21.182 22.525C21.182 23.528 21.0588 24.225 20.0812 24.225C19.1038 24.225 18.9805 23.528 18.9805 22.525ZM12.8732 22.9245C12.8732 23.6215 12.6947 24.225 11.8447 24.225L11.8362 24.2633C10.8587 24.2633 10.7355 23.5662 10.7355 22.5632C10.7355 21.5602 10.9012 20.8632 11.8362 20.8632C12.7712 20.8632 12.8392 21.5475 12.8392 22.0192L12.1847 22.0192C12.1847 21.5475 12.1422 21.3435 11.7937 21.3435C11.4452 21.3435 11.3687 21.6112 11.3687 22.5887C11.3687 23.5662 11.5387 23.7448 11.7937 23.7448C12.0487 23.7448 12.2187 23.6215 12.2187 22.9245L12.8732 22.9245ZM29.7372 22.5505C30.1835 22.6057 30.26 22.8522 30.26 23.5365L30.2515 23.5322C30.2557 23.8765 30.2727 24.0508 30.396 24.1145L30.396 24.14L29.6905 24.14C29.6324 24.0364 29.6045 23.9186 29.6097 23.8L29.6097 23.2008C29.6012 22.9287 29.4865 22.7757 29.223 22.7757L28.8745 22.7757L28.8745 24.14L28.22 24.14L28.22 20.9015L29.427 20.9015C29.6594 20.8755 29.8911 20.9567 30.0565 21.122C30.2218 21.2874 30.303 21.5191 30.277 21.7515C30.277 22.185 30.1027 22.474 29.7372 22.5505ZM17 22.8523L17.3485 22.8523C17.6214 22.8908 17.897 22.8029 18.0972 22.6134C18.2974 22.424 18.4004 22.1536 18.377 21.879C18.413 21.627 18.3342 21.372 18.1621 21.1843C17.9901 20.9967 17.743 20.896 17.4887 20.91L16.354 20.91L16.354 24.1443L17 24.1443L17 22.8523ZM7.514 23.7277C7.82 23.7277 7.8965 23.4897 7.8965 23.1667L7.888 20.91L8.5425 20.91L8.5425 23.1837C8.58024 23.4683 8.48398 23.7542 8.28186 23.958C8.07974 24.1618 7.79458 24.2604 7.50975 24.225C7.22027 24.2673 6.92804 24.1684 6.72371 23.959C6.51938 23.7497 6.42766 23.4551 6.477 23.1667L6.477 20.91L7.1315 20.91L7.1315 23.1667C7.1315 23.4897 7.208 23.7277 7.514 23.7277ZM9.333 20.91L9.9875 20.91L9.9875 24.1485L9.333 24.1485L9.333 20.91ZM14.2375 23.1838L14.4755 22.8182L15.1427 24.1442L15.878 24.1442L14.9005 22.2955L15.776 20.91L15.0705 20.91L14.246 22.2062L14.2375 22.2062L14.2375 20.91L13.583 20.91L13.583 24.1442L14.2375 24.1442L14.2375 23.1838ZM24.0975 23.3027L24.106 23.3027L24.463 20.91L25.0877 20.91L24.5012 24.1442L23.7702 24.1442L23.409 21.7983L23.3962 21.7983L23.035 24.1442L22.3082 24.1442L21.7175 20.91L22.3422 20.91L22.6992 23.3027L22.7077 23.3027L23.0902 20.91L23.715 20.91L24.0975 23.3027ZM26.3415 22.7417L27.4295 22.7417L27.4295 22.2062L26.3415 22.2062L26.3415 21.4455L27.4975 21.4455L27.4975 20.91L25.6912 20.91L25.6912 24.1442L27.5443 24.1442L27.5443 23.6087L26.3415 23.6087L26.3415 22.7417ZM19.6307 22.5037C19.6307 23.375 19.6945 23.7065 20.0812 23.7065C20.468 23.7065 20.5317 23.3665 20.5317 22.5037C20.5317 21.641 20.468 21.3052 20.0812 21.3052C19.6945 21.3052 19.6307 21.6325 19.6307 22.5037ZM4.26275 22.525C4.26275 23.3864 4.32507 23.7202 4.70031 23.7276C5.07589 23.72 5.13825 23.3657 5.13825 22.525C5.13825 21.675 5.1 21.3265 4.71325 21.3265C4.3265 21.3265 4.26275 21.6537 4.26275 22.525ZM28.8532 22.3167L29.1295 22.3167C29.2639 22.3388 29.4007 22.2951 29.4975 22.1992C29.5942 22.1033 29.6391 21.9668 29.6182 21.8323C29.6194 21.8139 29.6194 21.7954 29.6182 21.777C29.6106 21.6642 29.5584 21.559 29.473 21.4849C29.3877 21.4107 29.2763 21.3736 29.1635 21.3818L28.8532 21.3818L28.8532 22.3167ZM17 21.386L17.272 21.386C17.5992 21.386 17.7267 21.5688 17.7267 21.8833C17.7441 22.0059 17.7071 22.1299 17.6254 22.223C17.5438 22.3161 17.4256 22.369 17.3017 22.3678L17 22.3678L17 21.386ZM20.0515 27.8077L19.38 27.5187C19.0102 27.3615 18.955 27.2 18.955 26.9322C18.9274 26.7942 18.9699 26.6513 19.0687 26.5509C19.1674 26.4505 19.3095 26.4055 19.448 26.4307C19.7795 26.4307 19.9198 26.6645 19.9198 27.0725L20.7698 27.0725L20.7698 26.9535C20.7698 26.1035 20.2087 25.7932 19.4352 25.7932C19.0812 25.7534 18.7276 25.8727 18.47 26.1188C18.2123 26.365 18.0771 26.7127 18.1007 27.0682C18.1007 27.7865 18.4577 28.1095 19.2312 28.373C19.805 28.5727 20.0047 28.7172 20.0047 29.1082C20.0141 29.2402 19.9705 29.3704 19.8835 29.4701C19.7966 29.5698 19.6735 29.6308 19.5415 29.6395L19.465 29.6395C19.006 29.6395 18.8912 29.3802 18.8912 28.9765L18.8912 28.849L18.0412 28.849L18.0412 29.0232C18.0412 29.8222 18.428 30.2982 19.414 30.2982C20.4 30.2982 20.91 29.8732 20.91 28.9765C20.91 28.4495 20.74 28.1265 20.0897 27.8332L20.0515 27.8077ZM15.2022 25.874L14.0632 30.175L14.9685 30.175L15.1682 29.2612L16.3157 29.2612L16.5155 30.175L17.425 30.175L16.2775 25.8612L15.2022 25.874ZM12.3547 29.0615L12.342 29.0615L11.8362 25.874L10.999 25.874L10.4932 29.0615L10.4805 29.0615L10.0045 25.874L9.1715 25.874L9.95775 30.1877L10.9267 30.1877L11.4112 27.0555L11.424 27.0555L11.9085 30.1877L12.8818 30.1877L13.6637 25.874L12.8307 25.874L12.3547 29.0615ZM22.6312 27.523L23.647 27.523L23.647 25.874L24.5182 25.874L24.5182 30.1877L23.647 30.1877L23.647 28.271L22.6312 28.271L22.6312 30.1877L21.76 30.1877L21.76 25.874L22.6312 25.874L22.6312 27.523ZM15.3 28.5642L15.725 26.6262L16.15 28.5642L15.3 28.5642Z" id="Combined-Shape" fill="#8C0014" fill-rule="evenodd" stroke="none" />
      <path d="M0 0L13.6 0L13.6 13.6L0 13.6L0 0Z" transform="translate(10.2 4.98525)" id="Rectangle" fill="url(#gradient_1)" stroke="none" />
      <path d="M13.6 6.8C13.6 10.5555 10.5555 13.6 6.8 13.6C3.04446 13.6 0 10.5555 0 6.8C0 3.04446 3.04446 7.54952e-16 6.8 0C10.5555 0 13.6 3.04446 13.6 6.8" transform="translate(10.2 4.98525)" id="Path" fill="#FFFFFF" stroke="none" />
      <path d="M0 7.225C0 3.23474 3.23474 0 7.225 0C11.2153 0 14.45 3.23474 14.45 7.225C14.45 11.2153 11.2153 14.45 7.225 14.45C3.23474 14.45 0 11.2153 0 7.225M0.85 7.225C0.85 10.7458 3.70418 13.6 7.225 13.6C10.7458 13.6 13.6 10.7458 13.6 7.225C13.6 3.70418 10.7458 0.85 7.225 0.85C3.70418 0.85 0.85 3.70418 0.85 7.225" transform="translate(9.775 4.56025)" id="Shape" fill="#475155" stroke="none" />
      <path d="M0.00425 2.73275C1.0248 1.53811 2.69292 1.1262 4.15225 1.7085L4.36475 1.785C4.36475 1.785 4.66225 1.054 5.01925 0.16575C4.66541 0.0566119 4.29729 0.000749835 3.927 0C2.567 0 1.09225 0.765 0 2.737" transform="translate(14.165249 6.61725)" id="Path" fill="url(#gradient_2)" stroke="none" />
      <path d="M2.24072 4.845C1.35801 3.8089 1.12084 2.36953 1.62447 1.105L1.62447 1.071L0.298466 0C-0.615284 2.295 0.723466 3.8845 2.22797 4.845" transform="translate(11.920283 9.264999)" id="Path" fill="url(#gradient_3)" stroke="none" />
      <path d="M2.50325 1.054C2.03897 1.05448 1.57885 0.96649 1.1475 0.79475L1.08375 0.765L0 2.227C0.539003 2.45186 1.11603 2.5716 1.7 2.57975C3.434 2.57975 4.44975 1.27075 5.1 0C4.41791 0.666781 3.50383 1.04308 2.55 1.04975" transform="translate(14.449999 14.348)" id="Path" fill="url(#gradient_4)" stroke="none" />
      <path d="M0 0C1.18557 1.03278 1.58203 2.70577 0.986 4.16075L0.95625 4.22025L2.414 5.33375C3.0855 3.689 2.652 1.50875 0 0Z" transform="translate(19.35025 8.856999)" id="Path" fill="url(#gradient_5)" stroke="none" />
      <path d="M0.970456 4.3119C0.903706 4.48804 0.743886 4.61192 0.556668 4.63264C0.369449 4.65336 0.186407 4.56742 0.0827562 4.41014C-0.0208947 4.25287 -0.0276733 4.05077 0.0652059 3.8869C0.179956 3.63615 2.11796 -0.108102 2.36871 0.00239778C2.61946 0.112898 1.09371 4.0484 0.970456 4.2949" transform="translate(16.454544 7.643352)" id="Path" fill="#E1000F" stroke="none" />
    </g>
  </g>
</svg>

<svg width="34" height="34" viewBox="0 0 34 34" xmlns:xlink="http://www.w3.org/1999/xlink" xmlns="http://www.w3.org/2000/svg"><defs><linearGradient x1="-.213" y1=".5" x2=".788" y2=".5" id="gradient_1"><stop offset="0" stop-color="#FFF"/><stop offset=".4" stop-color="#FFF"/><stop offset=".53" stop-color="#E2F2FA"/><stop offset=".82" stop-color="#98D0ED"/><stop offset="1" stop-color="#65B8E4"/></linearGradient><linearGradient x1="-.034" y1=".623" x2="1.021" y2=".295" id="gradient_2"><stop offset="0" stop-color="#FFF"/><stop offset=".09" stop-color="#F2F9FC"/><stop offset=".25" stop-color="#D1E9F5"/><stop offset=".47" stop-color="#9BD0EA"/><stop offset=".73" stop-color="#51ADDB"/><stop offset="1" stop-color="#0086CA"/></linearGradient><linearGradient x1=".634" y1="1.029" x2=".253" y2="-.01" id="gradient_3"><stop offset="0" stop-color="#FFF"/><stop offset=".36" stop-color="#D8EAF7"/><stop offset="1" stop-color="#8AC1E8"/></linearGradient><linearGradient x1="1.028" y1="-66.873" x2="-.013" y2="-67.221" id="gradient_4"><stop offset="0" stop-color="#FFF"/><stop offset=".36" stop-color="#D8EAF7"/><stop offset="1" stop-color="#8AC1E8"/></linearGradient><linearGradient x1=".375" y1="-30.066" x2=".726" y2="-31.112" id="gradient_5"><stop offset="0" stop-color="#FFF"/><stop offset=".36" stop-color="#D8EAF7"/><stop offset="1" stop-color="#8AC1E8"/></linearGradient></defs><g id="icons/example1"><g id="Быстрая-программа-QuickPowerWash+" stroke="none"><path d="M26.35 0H7.65A7.65 7.65 0 000 7.65v18.7A7.65 7.65 0 007.65 34h18.7A7.65 7.65 0 0034 26.35V7.65A7.65 7.65 0 0026.35 0zm0 1.275a6.375 6.375 0 016.375 6.375v18.7a6.375 6.375 0 01-6.375 6.375H7.65a6.375 6.375 0 01-6.375-6.375V7.65A6.375 6.375 0 017.65 1.275h18.7zM5.801 22.525c0-.982-.123-1.7-1.1-1.7-.978 0-1.101.697-1.101 1.7 0 1.003.123 1.7 1.1 1.7h.23l.2-.051.386.4.387-.349-.348-.353c.207-.404.294-.86.25-1.313l-.004-.034zm13.18 0c0-1.003.123-1.7 1.1-1.7.978 0 1.101.697 1.101 1.7 0 1.003-.123 1.7-1.1 1.7-.978 0-1.102-.697-1.102-1.7zm-6.108.4c0 .697-.178 1.3-1.028 1.3l-.009.038c-.977 0-1.1-.697-1.1-1.7 0-1.003.165-1.7 1.1-1.7s1.003.684 1.003 1.156h-.654c0-.471-.043-.675-.391-.675-.349 0-.425.267-.425 1.245 0 .977.17 1.156.425 1.156s.425-.123.425-.82h.654zm16.864-.375c.447.056.523.302.523.986l-.009-.004c.005.345.022.519.145.582v.026h-.706a.638.638 0 01-.08-.34v-.6c-.009-.271-.123-.424-.387-.424h-.348v1.364h-.655v-3.239h1.207a.77.77 0 01.85.85c0 .434-.174.723-.54.8zM17 22.852h.349a.905.905 0 001.028-.973.85.85 0 00-.888-.969h-1.135v3.234H17v-1.292zm-9.486.876c.306 0 .382-.238.382-.561l-.008-2.257h.655v2.274a.927.927 0 01-1.033 1.041.914.914 0 01-1.033-1.058V20.91h.654v2.257c0 .323.077.56.383.56zm1.819-2.818h.655v3.238h-.655V20.91zm4.905 2.274l.238-.366.667 1.326h.735l-.978-1.848.876-1.386h-.706l-.824 1.296h-.008V20.91h-.655v3.234h.655v-.96zm9.86.119h.008l.357-2.393h.625l-.587 3.234h-.73l-.362-2.346h-.013l-.361 2.346h-.727l-.59-3.234h.624l.357 2.393h.009l.382-2.393h.625l.383 2.393zm2.244-.561h1.088v-.536h-1.088v-.76h1.155v-.536h-1.806v3.234h1.853v-.535h-1.203v-.867zm-6.711-.238c0 .871.064 1.202.45 1.202.387 0 .45-.34.45-1.202 0-.863-.063-1.199-.45-1.199-.386 0-.45.328-.45 1.199zm-15.368.021c0 .861.062 1.195.437 1.203.376-.008.438-.362.438-1.203 0-.85-.038-1.198-.425-1.198-.386 0-.45.327-.45 1.198zm24.59-.208h.276a.425.425 0 00.49-.485.425.425 0 00-.456-.45h-.31v.935zM17 21.386h.272c.327 0 .455.183.455.497a.424.424 0 01-.425.485H17v-.982zm3.052 6.422l-.672-.29c-.37-.157-.425-.318-.425-.586a.425.425 0 01.493-.501c.331 0 .472.233.472.642h.85v-.12c0-.85-.561-1.16-1.335-1.16a1.203 1.203 0 00-1.334 1.275c0 .718.357 1.041 1.13 1.305.574.2.774.344.774.735a.497.497 0 01-.463.532h-.077c-.459 0-.574-.26-.574-.663v-.128h-.85v.174c0 .8.387 1.275 1.373 1.275s1.496-.425 1.496-1.321c0-.527-.17-.85-.82-1.144l-.038-.025zm-4.85-1.934l-1.139 4.301h.905l.2-.914h1.148l.2.914h.909l-1.148-4.314-1.075.013zm-2.847 3.188h-.013l-.506-3.188H11l-.506 3.188h-.013l-.476-3.188h-.832l.786 4.314h.969l.484-3.133h.013l.485 3.133h.973l.782-4.314h-.833l-.476 3.188zm10.276-1.539h1.016v-1.649h.871v4.314h-.871V28.27h-1.016v1.917h-.871v-4.314h.871v1.649zM15.3 28.564l.425-1.938.425 1.938h-.85z" id="Combined-Shape" fill="#8C0014" fill-rule="evenodd"/><path d="M0 0h13.6v13.6H0V0z" transform="translate(10.2 4.985)" id="Rectangle" fill="url(#gradient_1)"/><path d="M13.6 6.8A6.8 6.8 0 110 6.8a6.8 6.8 0 0113.6 0" transform="translate(10.2 4.985)" id="Path" fill="#FFF"/><path d="M0 7.225a7.225 7.225 0 1114.45 0 7.225 7.225 0 01-14.45 0m.85 0a6.375 6.375 0 1012.75 0 6.375 6.375 0 00-12.75 0" transform="translate(9.775 4.56)" id="Shape" fill="#475155"/><path d="M.004 2.733a3.668 3.668 0 014.148-1.025l.213.077s.297-.731.654-1.62A3.731 3.731 0 003.927 0C2.567 0 1.092.765 0 2.737" transform="translate(14.165 6.617)" id="Path" fill="url(#gradient_2)"/><path d="M2.24 4.845a3.672 3.672 0 01-.616-3.74v-.034L.298 0c-.913 2.295.425 3.885 1.93 4.845" transform="translate(11.92 9.265)" id="Path" fill="url(#gradient_3)"/><path d="M2.503 1.054c-.464 0-.924-.088-1.356-.26L1.085.766 0 2.227a4.581 4.581 0 001.7.353c1.734 0 2.75-1.31 3.4-2.58a3.685 3.685 0 01-2.55 1.05" transform="translate(14.45 14.348)" id="Path" fill="url(#gradient_4)"/><path d="M0 0a3.672 3.672 0 01.986 4.16l-.03.06 1.458 1.114C3.085 3.689 2.652 1.509 0 0z" transform="translate(19.35 8.857)" id="Path" fill="url(#gradient_5)"/><path d="M.97 4.312a.501.501 0 11-.905-.425C.18 3.637 2.118-.108 2.37.002c.25.11-1.275 4.046-1.399 4.293" transform="translate(16.455 7.643)" id="Path" fill="#E1000F"/></g></g></svg>
